usr/share/icons/biglinux-icons-material-dark/22/actions/amarok_cart_view.svg

<svg xmlns="http://www.w3.org/2000/svg" viewBox="0 0 22 22">
<defs id="defs3051">
<style id="current-color-scheme" type="text/css">
.ColorScheme-Text{color:#dedede}
</style>
</defs>
<path d="M11 3a3 3 0 0 0-3 3H5v13h12V6h-3a3 3 0 0 0-3-3m0 1a2 2 0 0 1 2 2H9a2 2 0 0 1 2-2M6 7h2v1.088A1.5 1.5 0 0 0 7 9.5 1.5 1.5 0 0 0 8.5 11 1.5 1.5 0 0 0 10 9.5a1.5 1.5 0 0 0-1-1.412V7h4v1.088A1.5 1.5 0 0 0 12 9.5a1.5 1.5 0 0 0 1.5 1.5A1.5 1.5 0 0 0 15 9.5a1.5 1.5 0 0 0-1-1.412V7h2v11H6zm2.5 2a.5.5 0 0 1 .5.5.5.5 0 0 1-.5.5.5.5 0 0 1-.5-.5.5.5 0 0 1 .5-.5m5 0a.5.5 0 0 1 .5.5.5.5 0 0 1-.5.5.5.5 0 0 1-.5-.5.5.5 0 0 1 .5-.5" class="ColorScheme-Text" style="fill:currentColor;fill-opacity:1;stroke:none"/>
</svg>

<svg xmlns="http://www.w3.org/2000/svg" viewBox="0 0 22 22">
  <defs id="defs3051">
    <style type="text/css" id="current-color-scheme">
      .ColorScheme-Text {
        color:#dedede;
      }
      </style>
  </defs>
 <path 
     style="fill:currentColor;fill-opacity:1;stroke:none" 
	d="M 11 3 A 3 3 0 0 0 8 6 L 5 6 L 5 7 L 5 18 L 5 19 L 17 19 L 17 18 L 17 7 L 17 6 L 14 6 A 3 3 0 0 0 11 3 z M 11 4 A 2 2 0 0 1 13 6 L 9 6 A 2 2 0 0 1 11 4 z M 6 7 L 8 7 L 8 8.0878906 A 1.5 1.5 0 0 0 7 9.5 A 1.5 1.5 0 0 0 8.5 11 A 1.5 1.5 0 0 0 10 9.5 A 1.5 1.5 0 0 0 9 8.0878906 L 9 7 L 13 7 L 13 8.0878906 A 1.5 1.5 0 0 0 12 9.5 A 1.5 1.5 0 0 0 13.5 11 A 1.5 1.5 0 0 0 15 9.5 A 1.5 1.5 0 0 0 14 8.0878906 L 14 7 L 16 7 L 16 18 L 6 18 L 6 7 z M 8.5 9 A 0.5 0.5 0 0 1 9 9.5 A 0.5 0.5 0 0 1 8.5 10 A 0.5 0.5 0 0 1 8 9.5 A 0.5 0.5 0 0 1 8.5 9 z M 13.5 9 A 0.5 0.5 0 0 1 14 9.5 A 0.5 0.5 0 0 1 13.5 10 A 0.5 0.5 0 0 1 13 9.5 A 0.5 0.5 0 0 1 13.5 9 z "
	 class="ColorScheme-Text"
     />
</svg>
